(Clean.nc)
(----------------------------------------------------------------)
( Generated for RhinoCam to export for CNC-STEP models Raptor X-SL3000s20 / T-Rex1215 )
( Postprocessor written at FabLab BCN/IaaC by eduardo.chamorro@iaac.net )
( Last edit : 22 January - 2019 )
(----------------------------------------------------------------)
(Cleaning area X = 3000.0000, Y =  1400.0000, Z = 0.0000)
(WARNING!-TAKE OUT THE TOOL BEFORE SENDING THIS FILE)
(-------------------------------------------------------------)
%
G21 G90
G64
G0 Z10.0000
G0 X10.0378 Y6.6350
G1 X10.0378 Y6.6350 Z1.1000 F1500.
G1 X10.0378 Y6.6350 Z0.5000 F5000.
G1 X6.6350 Y6.6350 Z-0.1000 F3000.
G1 X2993.3650 Y6.6350 Z-0.1000 F12000.
G1 X2993.3650 Y78.6350 Z-0.1000
G1 X6.6350 Y78.6350 Z-0.1000
G1 X6.6350 Y150.6350 Z-0.1000
G1 X2993.3650 Y150.6350 Z-0.1000
G1 X2993.3650 Y222.6350 Z-0.1000
G1 X6.6350 Y222.6350 Z-0.1000
G1 X6.6350 Y294.6350 Z-0.1000
G1 X2993.3650 Y294.6350 Z-0.1000
G1 X2993.3650 Y366.6350 Z-0.1000
G1 X6.6350 Y366.6350 Z-0.1000
G1 X6.6350 Y438.6350 Z-0.1000
G1 X2993.3650 Y438.6350 Z-0.1000
G1 X2993.3650 Y510.6350 Z-0.1000
G1 X6.6350 Y510.6350 Z-0.1000
G1 X6.6350 Y582.6350 Z-0.1000
G1 X2993.3650 Y582.6350 Z-0.1000
G1 X2993.3650 Y654.6350 Z-0.1000
G1 X6.6350 Y654.6350 Z-0.1000
G1 X6.6350 Y726.6350 Z-0.1000
G1 X2993.3650 Y726.6350 Z-0.1000
G1 X2993.3650 Y798.6350 Z-0.1000
G1 X6.6350 Y798.6350 Z-0.1000
G1 X6.6350 Y870.6350 Z-0.1000
G1 X2993.3650 Y870.6350 Z-0.1000
G1 X2993.3650 Y942.6350 Z-0.1000
G1 X6.6350 Y942.6350 Z-0.1000
G1 X6.6350 Y1014.6350 Z-0.1000
G1 X2993.3650 Y1014.6350 Z-0.1000
G1 X2993.3650 Y1086.6350 Z-0.1000
G1 X6.6350 Y1086.6350 Z-0.1000
G1 X6.6350 Y1158.6350 Z-0.1000
G1 X2993.3650 Y1158.6350 Z-0.1000
G1 X2993.3650 Y1230.6350 Z-0.1000
G1 X6.6350 Y1230.6350 Z-0.1000
G1 X6.6350 Y1302.6350 Z-0.1000
G1 X2993.3650 Y1302.6350 Z-0.1000
G1 X2993.3650 Y1374.6350 Z-0.1000
G1 X6.6350 Y1374.6350 Z-0.1000
G1 X6.6350 Y1393.3650 Z-0.1000
G1 X2993.3650 Y1393.3650 Z-0.1000
G1 X2992.3043 Y1393.3650 Z0.9607 F3000.
G1 X2992.3043 Y1393.3650 Z1.5607 F5000.
G0 Z10.0000
G0 X2992.3043 Y1393.3650

M30
(--THE END - THANK YOU FOR USING THIS AWESOME POSTPROCESSOR---)
